public/illustrations/_keys.svg

<svg width="284" height="236" viewBox="0 0 284 236" fill="none" xmlns="http://www.w3.org/2000/svg">
<path d="M267.749 84.2487C269.165 91.6112 270.581 98.6905 271.856 105.911C272.139 107.752 272.422 109.734 272.422 111.575C272.564 112.849 272.422 114.123 271.572 115.114C270.864 116.106 269.873 116.955 268.741 117.38C265.342 118.654 261.661 119.645 257.98 120.353C253.591 121.061 251.042 119.22 250.051 114.831C248.494 108.318 247.361 101.805 246.087 95.2924C245.804 93.5934 245.52 91.7528 245.096 90.0537C245.096 89.4874 244.246 89.2042 243.68 88.7795L242.972 89.0627C243.255 91.0449 243.68 93.027 243.963 94.8676C244.529 99.8232 245.237 104.779 245.52 109.734C245.804 113.84 243.963 116.389 239.998 117.521C237.308 118.229 234.477 118.654 231.645 118.796C227.68 119.079 225.415 117.238 224.424 113.274C223.008 107.61 221.875 101.947 220.601 96.4251C220.318 95.434 220.035 94.4429 219.751 93.3102L203.752 96.4251C194.691 98.1241 185.629 99.9648 176.568 101.805C175.86 101.805 175.152 102.089 174.585 102.372C174.019 102.796 173.594 103.221 173.311 103.929C167.789 115.114 164.958 117.805 153.489 122.902C152.639 129.981 150.091 136.635 145.985 142.44C146.834 143.432 147.684 144.281 148.533 145.272L205.027 203.322C206.018 204.172 206.726 205.163 207.575 206.154C209.416 208.844 209.416 211.251 207.575 213.092C206.584 214.083 205.31 214.508 203.894 214.508C202.478 214.508 201.204 213.941 200.213 213.092C198.655 211.676 197.098 210.118 195.54 208.419C194.974 207.712 194.549 207.004 194.124 206.296C192.567 207.428 191.434 208.136 190.302 208.986C185.912 212.525 181.523 216.065 177.134 219.605C172.462 223.286 169.913 223.144 165.807 218.897C162.55 215.499 159.294 211.959 156.037 208.419C152.215 204.313 152.498 201.199 156.887 197.659C160.993 194.402 165.099 191.146 169.205 187.89C170.338 187.04 171.329 186.19 172.745 184.916C161.418 173.165 150.232 161.696 139.047 150.369C135.791 152.351 132.959 154.334 129.986 155.891C125.313 158.44 120.074 159.572 114.694 159.148C110.871 158.864 107.19 157.449 104.217 155.042C101.243 152.635 98.8364 149.52 97.7038 145.839L90.1996 144.989C89.0669 146.688 88.0759 148.387 86.9432 149.803C84.5362 153.059 81.5628 155.608 78.0232 157.59C74.4835 159.572 70.6606 160.705 66.6962 160.988C65.7051 160.988 64.8555 161.271 64.006 161.838C63.1565 162.404 62.5903 163.112 62.0239 163.82C58.3427 170.191 54.5198 176.421 50.9801 182.792C42.2017 198.367 33.4234 213.8 24.645 229.374C23.9371 230.648 23.2292 231.781 22.3796 232.914C21.6717 234.046 20.6805 234.754 19.4062 235.321C18.1319 235.746 16.8577 235.887 15.5834 235.462C14.4507 235.179 13.3181 234.471 12.4686 233.48C11.6191 232.489 11.1943 231.356 11.1943 230.082C10.6279 225.693 10.2031 221.445 9.77839 217.056C9.35363 212.809 8.64566 208.136 7.79614 203.747C7.51296 202.048 7.51289 200.349 8.07924 198.792C8.64559 197.234 9.6367 195.818 10.911 194.827C12.7516 193.128 14.8755 191.571 16.8577 189.872C16.0082 187.182 15.3003 184.633 14.5924 182.084C13.4597 177.554 14.5922 174.864 18.6983 172.315C20.9636 170.899 23.3706 169.625 25.7776 168.351C27.0519 167.643 28.1847 166.935 29.459 166.227C29.1758 164.386 29.0342 162.687 28.7511 161.13C28.4679 159.289 28.7511 157.307 29.459 155.75C30.3085 154.05 31.7243 152.635 33.2818 151.785C34.9808 150.794 36.6798 149.52 38.5204 148.245C34.556 142.016 33.1402 134.37 34.5561 127.008C36.1135 119.928 40.078 113.699 45.883 109.451C44.3256 104.071 42.3432 98.8321 41.3521 93.5934C36.5382 66.8337 42.6265 43.3305 63.015 24.4996C73.0676 15.0133 86.3767 9.91622 100.111 10.341C114.269 10.6241 126.587 16.0044 136.923 25.7738C146.693 35.1185 153.347 47.0117 156.321 60.1791C156.321 61.3118 156.887 62.3029 157.453 63.1524C158.02 64.002 158.869 64.7099 159.86 65.2762C163.683 67.4 166.94 70.5149 169.347 74.1962C169.771 75.0457 170.621 75.7536 171.47 76.1784C172.462 76.6031 173.453 76.6031 174.444 76.1784C186.195 73.7714 198.089 71.2228 209.84 68.9575L270.298 56.7811C275.112 55.79 279.076 57.9138 280.492 62.7277C281.625 66.8337 282.475 70.9397 283.041 75.1872C283.607 78.5853 281.625 80.9923 278.085 81.8418C275.537 82.4081 272.988 82.8329 270.581 83.2576C269.732 83.3992 269.024 83.824 267.891 84.1072L267.749 84.2487ZM145.56 60.1791C142.87 48.0028 133.384 32.7115 118.659 25.4906C112.712 22.3757 106.199 20.8183 99.5444 20.8183C92.8899 20.8183 86.3769 22.3758 80.4302 25.3491C72.7845 29.0303 66.2715 34.8353 61.4576 41.9146C51.5465 56.3563 48.2899 72.3555 51.1217 89.629C51.8296 95.0093 53.5286 100.248 56.0772 104.92C65.7051 102.938 74.342 104.637 81.9876 110.584C89.6333 116.53 93.0314 125.025 92.7482 134.936H95.8631C96.0046 134.936 96.2878 134.653 96.571 134.512C98.6948 121.769 105.774 112.283 116.11 105.062C107.756 84.2487 119.933 61.1702 145.56 60.1791ZM19.9726 214.508H20.6805C21.1053 214.083 21.5301 213.375 21.9548 212.809C30.0253 198.65 37.9541 184.491 46.0246 170.191C48.8563 165.236 51.6881 160.139 54.3782 155.183C56.3604 151.502 59.0506 150.086 62.8734 150.511C66.1299 150.936 69.5279 150.369 72.3597 148.812C75.333 147.254 77.74 144.989 79.2975 142.157L70.9438 137.91C65.9883 140.6 63.2981 140.741 60.3248 138.334C57.4931 135.928 56.9268 132.813 58.6258 127.857L51.4049 118.796C48.8564 120.495 46.8742 123.043 45.7415 126.017C43.3345 132.529 44.0424 138.618 48.5732 143.998C51.8297 147.821 51.688 151.077 48.2899 154.051C46.4493 155.75 44.3256 157.307 42.2018 158.581C40.078 159.856 38.8037 161.271 39.5116 163.82C39.6532 164.386 39.5116 165.094 39.5116 165.802C40.2196 170.758 37.9542 173.873 33.7066 175.996C31.5828 177.129 29.459 178.262 27.3352 179.536C26.4857 179.961 25.7776 180.669 24.9281 181.235C25.7776 183.359 26.3439 185.341 27.1935 187.182C28.043 188.881 28.1846 190.721 27.7598 192.42C27.3351 194.261 26.344 195.818 24.9281 196.809C23.2291 198.367 21.2469 199.641 19.6895 201.34C19.2647 201.623 18.9814 202.048 18.6983 202.473C18.4151 202.898 18.2736 203.322 18.2736 203.889C18.8399 207.57 19.5478 211.11 20.1141 214.508H19.9726ZM147.967 71.9308C139.33 69.2406 129.278 74.3377 125.596 83.116C123.614 88.0715 123.473 93.5934 125.172 98.6905C126.871 103.788 130.41 108.035 135.083 110.725C139.33 113.132 144.427 113.84 149.241 112.849C154.055 111.716 158.303 108.885 161.135 104.92C167.081 96.7083 164.957 82.5497 158.586 78.3021C158.161 83.2576 157.736 87.93 157.453 92.6023C157.17 95.434 156.038 97.9825 154.055 99.9647C152.215 101.947 149.666 103.363 146.834 103.788C144.144 104.354 141.454 103.929 138.905 102.655C136.498 101.381 134.516 99.3984 133.384 96.9914C130.693 91.4696 133.1 83.6824 138.339 81.7002C141.454 80.5675 144.569 79.718 147.967 78.7269V71.6476V71.9308ZM270.864 67.5416L175.152 86.9389V89.629C175.152 90.1953 175.435 90.7617 175.718 91.328L271.714 72.3555L270.723 67.5416H270.864ZM107.756 134.37C116.818 132.388 125.03 127.716 131.26 121.061L122.057 114.123C114.836 118.088 108.606 126.583 107.756 134.37ZM141.596 125.875C132.817 135.503 121.349 142.157 108.606 144.989C109.88 146.688 111.721 147.821 113.703 148.529C115.685 149.237 117.809 149.237 119.791 148.67C127.437 146.971 133.1 142.44 137.631 136.069C140.038 133.237 141.454 129.698 141.596 126.017V125.875ZM179.683 193.128L173.028 198.367L165.807 204.03L171.895 210.402L186.195 198.933L179.683 193.128ZM81.5628 131.538C82.1292 121.769 71.227 112.849 61.7407 115.256C66.6962 122.477 73.634 128.14 81.5628 131.68V131.538ZM259.396 109.451C261.661 108.035 261.803 108.035 261.52 106.336C261.095 103.788 260.529 101.381 260.104 98.8321C259.396 95.1508 258.546 91.328 257.838 87.6468C257.555 86.3725 256.847 85.9478 255.29 86.7973C256.564 94.3013 257.98 101.664 259.396 109.593V109.451ZM230.937 90.7617C230.937 95.7172 233.202 105.628 234.76 107.327C234.76 103.363 233.344 93.1686 232.494 91.6112C232.353 91.328 231.645 91.1864 230.937 90.9033V90.7617Z" fill="#102185"/>
<path d="M13.1779 41.4911C14.0274 38.5178 15.0185 35.5445 16.1511 32.7128C19.4076 25.3503 24.5048 18.8374 30.8762 13.7403C32.5752 12.466 34.5575 11.3333 36.5397 10.4838C37.6724 9.91749 38.9467 9.91747 40.0793 10.2006C41.212 10.6254 42.2031 11.3333 42.9111 12.466C44.1854 14.7314 43.6189 16.9968 41.3535 18.979C40.6456 19.6869 39.6545 20.2532 38.9466 20.8196C31.3009 26.7662 25.6374 33.8455 23.5136 43.4733C23.5136 43.8981 23.3721 44.1812 23.2305 44.606C22.0978 47.7209 19.9739 49.1367 17.1422 48.712C14.5936 48.2872 13.0361 46.0218 13.0361 41.4911H13.1779Z" fill="#102185"/>
<path d="M0.00969433 26.7655C0.00969433 26.1991 0.43442 24.7832 0.859181 23.3674C3.40774 15.5802 6.94738 8.35932 13.7435 3.40382C15.4426 2.12954 17.1417 1.13844 19.1239 0.430506C20.115 0.00574914 21.1061 -0.135854 22.0972 0.147318C23.0883 0.430489 23.9379 0.996849 24.6458 1.84636C25.3538 2.69588 25.7784 3.82857 25.7784 4.81967C25.7784 5.81077 25.3538 6.94343 24.6458 7.79294C23.9379 8.78404 23.0883 9.49198 22.0972 10.0583C16.009 13.7396 13.1772 19.6862 10.7703 26.0575C10.3455 27.1902 10.204 28.3229 9.77922 29.314C9.49604 30.5883 8.64656 31.5794 7.51386 32.2873C6.38117 32.9952 5.10675 33.2784 3.83247 32.9952C1.28391 32.4289 -0.131892 30.4467 0.00969433 26.4823V26.7655Z" fill="#102185"/>
</svg>

<svg xmlns="http://www.w3.org/2000/svg" width="284" height="236" fill="none" viewBox="0 0 284 236"><path fill="#102185" d="M267.749 84.249c1.416 7.362 2.832 14.442 4.107 21.662.283 1.841.566 3.823.566 5.664.142 1.274 0 2.548-.85 3.539-.708.992-1.699 1.841-2.831 2.266-3.399 1.274-7.08 2.265-10.761 2.973-4.389.708-6.938-1.133-7.929-5.522-1.557-6.513-2.69-13.026-3.964-19.539-.283-1.699-.567-3.54-.991-5.238 0-.567-.85-.85-1.416-1.275l-.708.284c.283 1.982.708 3.964.991 5.805.566 4.955 1.274 9.911 1.557 14.866.284 4.106-1.557 6.655-5.522 7.787a41 41 0 0 1-8.353 1.275c-3.965.283-6.23-1.558-7.221-5.522-1.416-5.664-2.549-11.327-3.823-16.849-.283-.991-.566-1.982-.85-3.115l-15.999 3.115c-9.061 1.7-18.123 3.54-27.184 5.38-.708 0-1.416.284-1.983.567-.566.424-.991.849-1.274 1.557-5.522 11.185-8.353 13.876-19.822 18.973-.85 7.079-3.398 13.733-7.504 19.538.849.992 1.699 1.841 2.548 2.832l56.494 58.05c.991.85 1.699 1.841 2.548 2.832 1.841 2.69 1.841 5.097 0 6.938-.991.991-2.265 1.416-3.681 1.416s-2.69-.567-3.681-1.416a73 73 0 0 1-4.673-4.673c-.566-.707-.991-1.415-1.416-2.123-1.557 1.132-2.69 1.84-3.822 2.69l-13.168 10.619c-4.672 3.681-7.221 3.539-11.327-.708-3.257-3.398-6.513-6.938-9.77-10.478-3.822-4.106-3.539-7.22.85-10.76l12.318-9.769c1.133-.85 2.124-1.7 3.54-2.974a3993 3993 0 0 0-33.698-34.547c-3.256 1.982-6.088 3.965-9.061 5.522a27.25 27.25 0 0 1-15.292 3.257c-3.823-.284-7.504-1.699-10.477-4.106s-5.38-5.522-6.513-9.203l-7.504-.85c-1.133 1.699-2.124 3.398-3.257 4.814-2.407 3.256-5.38 5.805-8.92 7.787a27 27 0 0 1-11.327 3.398c-.99 0-1.84.283-2.69.85-.85.566-1.416 1.274-1.982 1.982-3.681 6.371-7.504 12.601-11.044 18.972-8.778 15.575-17.557 31.008-26.335 46.582-.708 1.274-1.416 2.407-2.265 3.54-.708 1.132-1.7 1.84-2.974 2.407-1.274.425-2.548.566-3.823.141-1.132-.283-2.265-.991-3.114-1.982q-1.275-1.487-1.275-3.398c-.566-4.389-.99-8.637-1.416-13.026-.424-4.247-1.132-8.92-1.982-13.309-.283-1.699-.283-3.398.283-4.955.567-1.558 1.558-2.974 2.832-3.965 1.84-1.699 3.965-3.256 5.947-4.955-.85-2.69-1.558-5.239-2.266-7.788-1.132-4.53 0-7.22 4.106-9.769 2.266-1.416 4.673-2.69 7.08-3.964 1.274-.708 2.407-1.416 3.681-2.124-.283-1.841-.425-3.54-.708-5.097-.283-1.841 0-3.823.708-5.38a9.4 9.4 0 0 1 3.823-3.965c1.699-.991 3.398-2.265 5.238-3.54-3.964-6.229-5.38-13.875-3.964-21.237 1.558-7.08 5.522-13.309 11.327-17.557-1.557-5.38-3.54-10.619-4.53-15.858-4.815-26.76 1.273-50.262 21.662-69.093 10.053-9.487 23.362-14.584 37.096-14.159 14.158.283 26.476 5.663 36.812 15.433 9.77 9.344 16.424 21.238 19.398 34.405 0 1.133.566 2.124 1.132 2.973.567.85 1.416 1.558 2.407 2.124 3.823 2.124 7.08 5.239 9.487 8.92.424.85 1.274 1.558 2.123 1.982q1.488.638 2.974 0c11.751-2.407 23.645-4.955 35.396-7.22l60.458-12.177c4.814-.991 8.778 1.133 10.194 5.947a92.5 92.5 0 0 1 2.549 12.46c.566 3.397-1.416 5.804-4.956 6.654-2.548.566-5.097.99-7.504 1.416-.849.141-1.557.566-2.69.85zM145.56 60.179c-2.69-12.176-12.176-27.467-26.901-34.688-5.947-3.115-12.46-4.673-19.115-4.673A42.66 42.66 0 0 0 80.43 25.35c-7.646 3.681-14.159 9.486-18.972 16.566-9.911 14.441-13.168 30.44-10.336 47.714.708 5.38 2.407 10.619 4.955 15.291 9.628-1.982 18.265-.283 25.91 5.664 7.646 5.946 11.044 14.441 10.761 24.352h3.115c.142 0 .425-.283.708-.424 2.124-12.743 9.203-22.229 19.539-29.45-8.354-20.813 3.823-43.892 29.45-44.883M19.973 214.508h.707c.425-.425.85-1.133 1.275-1.699 8.07-14.159 16-28.318 24.07-42.618a792 792 0 0 0 8.353-15.008c1.982-3.681 4.673-5.097 8.495-4.672 3.257.425 6.655-.142 9.487-1.699 2.973-1.558 5.38-3.823 6.938-6.655l-8.354-4.247c-4.956 2.69-7.646 2.831-10.62.424-2.83-2.406-3.397-5.521-1.698-10.477l-7.221-9.061c-2.549 1.699-4.53 4.247-5.663 7.221-2.407 6.512-1.7 12.601 2.831 17.981 3.257 3.823 3.115 7.079-.283 10.053-1.84 1.699-3.964 3.256-6.088 4.53s-3.398 2.69-2.69 5.239c.141.566 0 1.274 0 1.982.708 4.956-1.558 8.071-5.805 10.194-2.124 1.133-4.248 2.266-6.372 3.54-.85.425-1.557 1.133-2.407 1.699.85 2.124 1.416 4.106 2.265 5.947a7.54 7.54 0 0 1 .567 5.238c-.425 1.841-1.416 3.398-2.832 4.389-1.699 1.558-3.681 2.832-5.239 4.531-.424.283-.708.708-.99 1.133a2.4 2.4 0 0 0-.425 1.416c.566 3.681 1.274 7.221 1.84 10.619zM147.967 71.931c-8.637-2.69-18.689 2.407-22.371 11.185-1.982 4.956-2.123 10.477-.424 15.575s5.238 9.344 9.911 12.034c4.247 2.407 9.344 3.115 14.158 2.124 4.814-1.133 9.062-3.964 11.894-7.929 5.946-8.212 3.822-22.37-2.549-26.618-.425 4.956-.85 9.628-1.133 14.3-.283 2.832-1.415 5.38-3.398 7.363a12.43 12.43 0 0 1-7.221 3.823c-2.69.566-5.38.141-7.929-1.133-2.407-1.274-4.389-3.257-5.521-5.664-2.691-5.521-.284-13.309 4.955-15.29 3.115-1.133 6.23-1.983 9.628-2.974v-7.08zm122.897-4.39L175.152 86.94v2.69c0 .566.283 1.133.566 1.699l95.996-18.972-.991-4.814zM107.756 134.37c9.062-1.982 17.274-6.654 23.504-13.309l-9.203-6.938c-7.221 3.965-13.451 12.46-14.301 20.247m33.84-8.495a63.07 63.07 0 0 1-32.99 19.114c1.274 1.699 3.115 2.832 5.097 3.54s4.106.708 6.088.141c7.646-1.699 13.309-6.23 17.84-12.601 2.407-2.832 3.823-6.371 3.965-10.052zm38.087 67.253-6.655 5.239-7.221 5.663 6.088 6.372 14.3-11.469zm-98.12-61.59c.566-9.769-10.336-18.689-19.822-16.282 4.955 7.221 11.893 12.884 19.822 16.424zm177.833-22.087c2.265-1.416 2.407-1.416 2.124-3.115-.425-2.548-.991-4.955-1.416-7.504-.708-3.681-1.558-7.504-2.266-11.185-.283-1.275-.991-1.7-2.548-.85 1.274 7.504 2.69 14.867 4.106 22.796zm-28.459-18.69c0 4.956 2.265 14.867 3.823 16.566 0-3.964-1.416-14.158-2.266-15.716-.141-.283-.849-.425-1.557-.708zM13.178 41.491c.85-2.973 1.84-5.946 2.973-8.778 3.257-7.363 8.354-13.876 14.725-18.973a28 28 0 0 1 5.664-3.256c1.132-.567 2.407-.567 3.54-.283 1.132.424 2.123 1.132 2.831 2.265 1.274 2.265.708 4.53-1.558 6.513-.707.708-1.699 1.274-2.406 1.84-7.646 5.947-13.31 13.027-15.433 22.654 0 .425-.142.708-.284 1.133-1.132 3.115-3.256 4.53-6.088 4.106-2.548-.425-4.106-2.69-4.106-7.22zM.01 26.766c0-.567.424-1.983.85-3.399C3.407 15.58 6.946 8.36 13.743 3.404c1.699-1.274 3.398-2.266 5.38-2.973.991-.425 1.982-.567 2.973-.284q1.486.425 2.549 1.7c.708.849 1.132 1.982 1.132 2.973s-.424 2.123-1.132 2.973c-.708.991-1.558 1.699-2.549 2.265-6.088 3.682-8.92 9.628-11.327 16-.425 1.132-.566 2.265-.99 3.256-.284 1.274-1.133 2.265-2.266 2.973s-2.407.991-3.682.708C1.284 32.43-.132 30.447.01 26.482z"/></svg>
